X:1
T:Tims VersionTake10
T:El Laberinto del Fauno
T:Theme from Pans Labyrinth
T:Javier Navarette
C:Composer
%%score { 1 | 2 }
L:1/8
M:3/4
K:C
V:1 treble nm="S:  1"
V:2 treble 
V:1
"^Adagio"!pp! ed"_With Pedal"cdef | !fermata!e6 | edcdef | !fermata!d6 | dcBcde | d4 e2 | d4 e2 | %7
 f4 g2 |!<(! e6-!<)! | e6- | e6 |!mp! e'd'c'd'e'f' | e'6- | e'6 | e'd'c'd'e'f' | d'6- | d'6 | %17
 d'c'bc'd'e' | d'4 e'2 | d'4 e'2 | f'4 g'2 | e'6- | e'6- | e'6 | e6- | e6 | e2 f2 g2 | f6- | %28
!<(! f6!<)! | f2 g2 a2 | ^g6- | g2- g2 f2 | e6- | e6- | e6 |!<(! [DGd]2 [CGc]2 [DGd]2!<)! | %36
 [CB]2 [Cc]2 G2 | [CA]2 D2 [CE]2 | [DGe]2 d2 [DA]2 | [Ae]2 d2 [df]2 |!>(! [Ae]2 c2 d2!>)! | %41
!mp! [^Ge]2 B2 c2 | [^Gd]2 f2 e2 | [Ad]2 c2 g2 |!<(! [Dd]2 [Cc]2 [A,A]2!<)! | %45
!>(! [^G,^G]2 [F,F]2 [E,E]2!>)! | D2 C2 B,2 | A,2 F,2 A,2 | C2 D2 F2 | F,2 A,2 C2 | ^G,2 F2 D2 | %51
 B2 ^G2 f2 | d2 ^g2 f2 |!p! [cea]6- | [cea]6- | [cea]6 |!pp! e'd'c'd'e'f' | e'6- | e'6 | %59
 e'd'c'd'e'f' | d'6- | d'6 | d'c'bc'd'e' |"_Ritenuto to end" d'4 e'2 | d'4 e'2 | f'4 g'2 | %66
 !fermata![ac'e']6 |] %67
V:2
 [A,CE]6- | [A,CE]6- | [A,CE]6 | [A,DF]6- | [A,DF]6 | [B,DF]6- | [B,DF]6- | [B,DF]6 | A,2 E2 c2 | %9
 A,2 E2 c2 | A,2 E2 c2 | A,2 E2 c2 | A,2 E2 c2 | A,2 E2 c2 | A,2 E2 c2 | A,2 F2 d2 | A,2 F2 d2 | %17
 A,2 F2 d2 | B,2 F2 d2 | B,2 F2 d2 | B,2 F2 B2 | C2 A2 e2 | C2 A2 e2 | C2 A2 e2 | %24
[K:bass] C,2 G,2 C2 | G,2 C2 G2 | A2 C2 c2 | D,2 F,2 D2 | F,2 A,2 F2 | A,2 F2 E2 | ^G,2 B,2 D2 | %31
 B,2 D2 F2 | A,2 E2 c2 | A,2 E2 B2 | A,2 E2 A2 | C,,2 G,,2!mf! E,2 | C,,2 G,,2 C,2 | E,2 F,2 G,2 | %38
 D,,2 A,,2 F,2 | D,,2 A,,2 D,2 | F,2 G,2 A,2 | ^G,,2 B,,2 D,2 | F,2 ^G,2 B,2 | D2 C2 B,2 | %44
 C,,2 G,,2 E,2 | C,,2 G,,2 C,2 | C,,2 G,,2 C,2 | D,,2 A,,2 F,2 | D,,2 A,,2 E,2 | D,,2 A,,2 D,2 | %50
!>(! E,,2 ^G,,2 B,,2!>)! | F,2 D,2 ^G,2 |!>(! F,2 B,2 ^G,2!>)! |[K:treble] A,2 E2 c2 | A,2 E2 B2 | %55
 A,2 E2 A2 | A,2 E2 c2 | A,2 E2 c2 | A,2 E2 c2 | A,2 E2 c2 | A,2 F2 d2 | A,2 F2 d2 | A,2 F2 d2 | %63
 B,2 F2 d2 | B,2 F2 d2 | B,2 F2 B2 | !fermata![A,EA]6 |] %67

